lib/brands/icons/redhat.svg

<svg xmlns="http://www.w3.org/2000/svg" fill="none" aria-hidden="true" viewBox="0 0 48 48"><g id="redhat-Icon"><g id="Group"><path id="Vector" fill="#EE0000" d="M30.0132 26.0785C32.3792 26.0785 35.8024 25.5906 35.8024 22.7764C35.8094 22.5592 35.7897 22.3419 35.7437 22.1296L34.3348 16.0095C34.0095 14.6629 33.7239 14.052 31.3598 12.87C29.5253 11.9319 25.5291 10.383 24.347 10.383C23.2463 10.383 22.9267 11.8014 21.6142 11.8014C20.3508 11.8014 19.4128 10.7423 18.2307 10.7423C17.096 10.7423 16.3565 11.5159 15.7853 13.1064C15.7853 13.1064 14.1948 17.5925 13.9905 18.243C13.9581 18.3625 13.944 18.4862 13.9489 18.6099C13.9489 20.3537 20.8142 26.0709 30.0132 26.0709V26.0785ZM36.1655 23.9187C36.4927 25.4676 36.4927 25.6303 36.4927 25.8345C36.4927 28.4823 33.5158 29.9518 29.6028 29.9518C20.7593 29.9575 13.0128 24.7754 13.0128 21.3504C13.0123 20.8736 13.1094 20.4018 13.2983 19.9641C10.1173 20.1229 6 20.6903 6 24.3253C6 30.279 20.1069 37.617 31.2766 37.617C39.8402 37.617 42 33.7438 42 30.6856C42 28.2799 39.9196 25.549 36.1693 23.9187"/><path id="Vector_2" fill="black" d="M36.1654 23.9187C36.4926 25.4676 36.4926 25.6303 36.4926 25.8345C36.4926 28.4823 33.5158 29.9518 29.6028 29.9518C20.7593 29.9575 13.0127 24.7754 13.0127 21.3504C13.0122 20.8736 13.1094 20.4018 13.2983 19.9641L13.9905 18.2506C13.9588 18.3676 13.9447 18.4888 13.9489 18.6099C13.9489 20.3537 20.8141 26.0709 30.0132 26.0709C32.3791 26.0709 35.8023 25.583 35.8023 22.7688C35.8094 22.5516 35.7897 22.3344 35.7437 22.122L36.1654 23.9187Z"/></g></g></svg>

<svg xmlns="http://www.w3.org/2000/svg" fill="none" aria-hidden="true" viewBox="0 0 48 48"><path fill="#E00" d="M30.013 26.078c2.366 0 5.79-.487 5.79-3.302a2.652 2.652 0 0 0-.06-.646l-1.408-6.12c-.325-1.347-.611-1.958-2.975-3.14-1.835-.938-5.83-2.487-7.013-2.487-1.1 0-1.42 1.418-2.733 1.418-1.263 0-2.201-1.059-3.383-1.059-1.135 0-1.875.774-2.446 2.364 0 0-1.59 4.487-1.794 5.137-.033.12-.047.243-.042.367 0 1.744 6.865 7.46 16.064 7.46v.008Zm6.152-2.16c.328 1.55.328 1.712.328 1.916 0 2.648-2.977 4.118-6.89 4.118-8.844.005-16.59-5.177-16.59-8.602 0-.476.096-.948.285-1.386-3.18.159-7.298.726-7.298 4.361 0 5.954 14.107 13.292 25.277 13.292C39.84 37.617 42 33.744 42 30.686c0-2.406-2.08-5.137-5.83-6.767"/><path fill="#000" d="M36.165 23.919c.328 1.549.328 1.711.328 1.915 0 2.648-2.977 4.118-6.89 4.118-8.844.005-16.59-5.177-16.59-8.602 0-.476.096-.948.285-1.386l.693-1.713a1.214 1.214 0 0 0-.042.359c0 1.744 6.865 7.46 16.064 7.46 2.366 0 5.79-.487 5.79-3.301a2.647 2.647 0 0 0-.06-.647l.422 1.797Z"/></svg>
